mono-glyphs/monitor-w.svg

<!-- Exported by Character Map UWP -->
<svg height="100%" viewBox="0 0 1024 1024" width="100%" xmlns="http://www.w3.org/2000/svg" xmlns:xlink="http://www.w3.org/1999/xlink">
  <path d="M898.5,0C915.167,0 931.083,3.41669 946.25,10.25C961.417,17.0834 974.75,26.2501 986.25,37.75C997.75,49.2501 1006.92,62.5834 1013.75,77.75C1020.58,92.9167 1024,108.833 1024,125.5L1024,706.5C1024,723.833 1020.5,740.083 1013.5,755.25C1006.5,770.417 997.167,783.667 985.5,795C973.833,806.333 960.25,815.333 944.75,822C929.25,828.667 913,832 896,832L704,832L704,960L800,960C808.667,960 816.167,963.167 822.5,969.5C828.833,975.833 832,983.333 832,992C832,1000.67 828.833,1008.17 822.5,1014.5C816.167,1020.83 808.667,1024 800,1024L224,1024C215.333,1024 207.833,1020.83 201.5,1014.5C195.167,1008.17 192,1000.67 192,992C192,983.333 195.167,975.833 201.5,969.5C207.833,963.167 215.333,960 224,960L320,960L320,832L125.5,832C108.833,832 92.9167,828.583 77.75,821.75C62.5833,814.917 49.25,805.75 37.75,794.25C26.25,782.75 17.0833,769.417 10.25,754.25C3.41667,739.083 0,723.167 0,706.5L0,125.5C0,108.833 3.41667,92.9167 10.25,77.75C17.0833,62.5834 26.25,49.2501 37.75,37.75C49.25,26.2501 62.5833,17.0834 77.75,10.25C92.9167,3.41669 108.833,0 125.5,0ZM960,128C960,119.333 958.333,111.083 955,103.25C951.667,95.4167 947.083,88.5834 941.25,82.75C935.417,76.9167 928.583,72.3334 920.75,69C912.917,65.6667 904.667,64.0001 896,64L128,64C119,64.0001 110.667,65.6667 103,69C95.3333,72.3334 88.5833,76.9167 82.75,82.75C76.9167,88.5834 72.3333,95.3334 69,103C65.6667,110.667 64,119 64,128L64,704C64,713 65.6667,721.417 69,729.25C72.3333,737.083 76.8333,743.833 82.5,749.5C88.1667,755.167 94.9167,759.667 102.75,763C110.583,766.333 119,768 128,768L896,768C905,768 913.333,766.333 921,763C928.667,759.667 935.417,755.083 941.25,749.25C947.083,743.417 951.667,736.667 955,729C958.333,721.333 960,713 960,704ZM384,960L640,960L640,832L384,832Z" fill="#FFFFFF" fill-opacity="1">
  </path>
</svg>

<svg xmlns="http://www.w3.org/2000/svg" width="1024" height="1024" fill="none" viewBox="0 0 1024 1024">
  <g clip-path="url(#a)">
    <path fill="#fff" d="M898.5 0c16.667 0 32.583 3.417 47.75 10.25 15.167 6.833 28.5 16 40 27.5s20.67 24.833 27.5 40c6.83 15.167 10.25 31.083 10.25 47.75v581c0 17.333-3.5 33.583-10.5 48.75-7 15.167-16.333 28.417-28 39.75-11.667 11.333-25.25 20.333-40.75 27-15.5 6.667-31.75 10-48.75 10H704v128h96c8.667 0 16.167 3.167 22.5 9.5 6.333 6.333 9.5 13.833 9.5 22.5 0 8.67-3.167 16.17-9.5 22.5-6.333 6.33-13.833 9.5-22.5 9.5H224c-8.667 0-16.167-3.17-22.5-9.5-6.333-6.33-9.5-13.83-9.5-22.5 0-8.667 3.167-16.167 9.5-22.5 6.333-6.333 13.833-9.5 22.5-9.5h96V832H125.5c-16.667 0-32.583-3.417-47.75-10.25-15.167-6.833-28.5-16-40-27.5s-20.667-24.833-27.5-40C3.417 739.083 0 723.167 0 706.5v-581c0-16.667 3.417-32.583 10.25-47.75 6.833-15.167 16-28.5 27.5-40s24.833-20.667 40-27.5C92.917 3.417 108.833 0 125.5 0h773ZM960 128c0-8.667-1.667-16.917-5-24.75-3.333-7.833-7.917-14.667-13.75-20.5S928.583 72.333 920.75 69s-16.083-5-24.75-5H128c-9 0-17.333 1.667-25 5-7.667 3.333-14.417 7.917-20.25 13.75S72.333 95.333 69 103s-5 16-5 25v576c0 9 1.667 17.417 5 25.25 3.333 7.833 7.833 14.583 13.5 20.25s12.417 10.167 20.25 13.5 16.25 5 25.25 5h768c9 0 17.333-1.667 25-5 7.667-3.333 14.417-7.917 20.25-13.75S951.667 736.667 955 729s5-16 5-25V128ZM384 960h256V832H384v128Z"/>
  </g>
  <defs>
    <clipPath id="a">
      <path fill="#fff" d="M0 0h1024v1024H0z"/>
    </clipPath>
  </defs>
</svg>
